X:134
T:The Valley of Knocknamore
B:Terry "Cuz" Teahan "Sliabh Luachra on Parade" 1980
Z:Patrick Cavanagh
M:3/4
L:1/8
R:Waltz
K:G
G4A2 | B4B2 | A2B2A2 | G4E2 | A2G2E2 | D2B,2D2 | E6 | E4D2 | 
E2D2E2 | G4A2 | B2A2B2 | d4B2 | A2B2A2 | G4A2 | B6 | B4D2 | 
E2D2E2 | G4A2 | B2A2B2 | d4B2 | A2B2A2 | G4A2 | B6 | B6 | 
G4A2 | B4B2 | A2B2A2 | G4E2 | A2G2E2 | D2B,2D2 | E6 | E6 || 

